modules/hawcons-filled/icons/thumb-up.svg

<?xml version="1.0" encoding="UTF-8" standalone="no"?>
<svg width="32px" height="32px" viewBox="0 0 32 32" version="1.1" xmlns="http://www.w3.org/2000/svg" xmlns:xlink="http://www.w3.org/1999/xlink" xmlns:sketch="http://www.bohemiancoding.com/sketch/ns">
    <!-- Generator: Sketch 3.0.3 (7891) - http://www.bohemiancoding.com/sketch -->
    <title>icon 6 thumb up</title>
    <desc>Created with Sketch.</desc>
    <defs></defs>
    <g id="Page-1" stroke="none" stroke-width="1" fill="none" fill-rule="evenodd" sketch:type="MSPage">
        <g id="icon-6-thumb-up" sketch:type="MSArtboardGroup" fill="#929292">
            <path d="M20.2999878,14 L27.5069036,14 C28.3361142,14 29,14.6715729 29,15.5 C29,16.3342028 28.331518,17 27.5069036,17 L24,17 L24,18 L26.5069036,18 C27.3361142,18 28,18.6715729 28,19.5 C28,20.3342028 27.331518,21 26.5069036,21 L23,21 L23,21 L23,22 L25.5069036,22 C26.3361142,22 27,22.6715729 27,23.5 C27,24.3342028 26.331518,25 25.5069036,25 L22,25 L22,26 L23.4983244,26 C24.3288106,26 25,26.6715729 25,27.5 C25,28.3342028 24.3276769,29 23.4983244,29 L19.7508378,29 L19.7508378,29 L16,29 L10,27 L4.00292933,27 C3.43788135,27 3,26.5529553 3,26.0014977 L3,14.9985023 C3,14.4474894 3.44769743,14 3.9999602,14 L10.5,14 C10.5000062,13.9999986 13.804736,13.2763148 15.3710938,10.3012695 C16.9374527,7.32622128 15.1291504,3.00000043 18,3 C21.1514893,2.99999957 21.5007324,8.5 20.2999878,14 L20.2999878,14 Z" id="thumb-up" sketch:type="MSShapeGroup"></path>
        </g>
    </g>
</svg>

<svg width="32" height="32" viewBox="0 0 32 32" xmlns="http://www.w3.org/2000/svg"><path d="M20.3 14h7.207c.83 0 1.493.672 1.493 1.5 0 .834-.668 1.5-1.493 1.5H24v1h2.507c.83 0 1.493.672 1.493 1.5 0 .834-.668 1.5-1.493 1.5H23v1h2.507c.83 0 1.493.672 1.493 1.5 0 .834-.668 1.5-1.493 1.5H22v1h1.498a1.5 1.5 0 1 1 0 3H16l-6-2H4.003A.994.994 0 0 1 3 26.001V15A1 1 0 0 1 4 14h6.5s3.305-.724 4.871-3.699C16.937 7.326 15.13 3 18 3c3.151 0 3.5 5.5 2.3 11z" fill="#929292" fill-rule="evenodd"/></svg>
